src/assets/outline/Devices1.svg

<?xml version="1.0" encoding="UTF-8"?>
<svg width="24" height="24" viewBox="0 0 24 24" xmlns="http://www.w3.org/2000/svg">
 <path d="m17.01 13.48c-1 0-1.82-0.82-1.82-1.82s0.82-1.82 1.82-1.82 1.82 0.81996 1.82 1.82-0.82 1.82-1.82 1.82zm0-2.14c-0.18 0-0.32 0.14-0.32 0.32s0.14 0.32 0.32 0.32 0.32-0.14 0.32-0.32-0.14-0.32-0.32-0.32z"/>
 <path d="m12.02 16.45h-6.02c-3.6 0-4.75-1.15-4.75-4.75v-5.7c0-3.6 1.15-4.75 4.75-4.75h10c3.6 0 4.75 1.15 4.75 4.75v1.79c0 0.21-0.09 0.42-0.25 0.56s-0.37 0.21005-0.59 0.18005-0.48-0.04004-0.76-0.04004h-4.28c-1.73 0-2.1 0.37004-2.1 2.1v5.11c0 0.41-0.34 0.75-0.75 0.75zm-6.02-13.7c-2.79 0-3.25 0.46-3.25 3.25v5.7c0 2.79 0.46 3.25 3.25 3.25h5.27v-4.36c0-2.56 1.04-3.6 3.6-3.6h4.28 0.1v-0.98999c0-2.79-0.46-3.25-3.25-3.25h-10z"/>
 <path d="m9 20.75c-0.41 0-0.75-0.34-0.75-0.75v-4.3c0-0.41 0.34-0.75 0.75-0.75s0.75 0.34 0.75 0.75v4.3c0 0.41-0.34 0.75-0.75 0.75z"/>
 <path d="m12 12.65h-10c-0.41 0-0.75-0.34-0.75-0.75s0.34-0.75 0.75-0.75h10c0.41 0 0.75 0.34 0.75 0.75s-0.34 0.75-0.75 0.75z"/>
 <path d="m12 20.75h-6.05c-0.41 0-0.75-0.34-0.75-0.75s0.34-0.75 0.75-0.75h6.05c0.41 0 0.75 0.34 0.75 0.75s-0.34 0.75-0.75 0.75z"/>
 <path d="m17.01 13.48c-1 0-1.82-0.82-1.82-1.82s0.82-1.82 1.82-1.82 1.82 0.81996 1.82 1.82-0.82 1.82-1.82 1.82zm0-2.14c-0.18 0-0.32 0.14-0.32 0.32s0.14 0.32 0.32 0.32 0.32-0.14 0.32-0.32-0.14-0.32-0.32-0.32z"/>
 <path d="m12.112 7.8324c0.6677-0.66774 1.6471-0.8422 2.7578-0.8422h4.28c0.3415 0 0.6613 0.02197 0.9394 0.05533l0.0061 7.4e-4v3e-5c0.8557 0.10985 1.5915 0.41347 2.0728 1.0972 0.4524 0.64266 0.5817 1.4907 0.5817 2.4468v8.56c0 1.1107-0.1744 2.0901-0.8421 2.7578-0.6678 0.6677-1.6471 0.8421-2.7579 0.8421h-4.28c-1.1107 0-2.0901-0.1744-2.7578-0.8421s-0.8422-1.6471-0.8422-2.7578v-8.56c0-1.1108 0.1745-2.0901 0.8422-2.7579zm1.0607 1.0606c-0.2223 0.22229-0.4029 0.66793-0.4029 1.6972v8.56c0 1.0292 0.1806 1.4749 0.4028 1.6971 0.2223 0.2223 0.668 0.4028 1.6972 0.4028h4.28c1.0293 0 1.4749-0.1805 1.6972-0.4028 0.2223-0.2222 0.4028-0.6679 0.4028-1.6971v-8.56c0-0.87405-0.1306-1.331-0.3083-1.5834-0.1484-0.21093-0.412-0.39208-1.0341-0.47243-0.2213-0.02643-0.4803-0.04428-0.7576-0.04428h-4.28c-1.0292 0-1.4749 0.18056-1.6971 0.40285zm3.8371 2.4472c-0.1758 0-0.32 0.1442-0.32 0.3199 0 0.1758 0.1443 0.32 0.32 0.32 0.1758 0 0.32-0.1442 0.32-0.32 0-0.1757-0.1441-0.3199-0.32-0.3199zm-1.82 0.3199c0-1.0043 0.8159-1.8199 1.82-1.8199 1.0042 0 1.82 0.81573 1.82 1.8199s-0.8157 1.82-1.82 1.82c-1.0042 0-1.82-0.8158-1.82-1.82zm1.82 3.96c-0.4445 0-0.8414 0.2119-1.0983 0.5409-0.1816 0.2337-0.2917 0.5328-0.2917 0.8492 0 0.7657 0.6243 1.39 1.39 1.39 0.7658 0 1.39-0.6242 1.39-1.39 0-0.4071-0.1836-0.7869-0.4844-1.0561-0.2394-0.2055-0.5555-0.334-0.9056-0.334zm-2.2813-0.3812c0.5231-0.6707 1.346-1.1188 2.2813-1.1188 0.7281 0 1.3905 0.2702 1.8906 0.7028l0.0078 0.0066-1e-4 1e-4c0.597 0.5306 0.9917 1.3093 0.9917 2.1806 0 1.5942-1.2957 2.89-2.89 2.89-1.5942 0-2.89-1.2958-2.89-2.89 0-0.6635 0.2298-1.2843 0.608-1.7705l7e-4 -8e-4z" clip-rule="evenodd" fill-rule="evenodd"/>
 <path d="m17.01 19.9c-1.59 0-2.89-1.3-2.89-2.89 0-0.64 0.22-1.27 0.61-1.77 0.55-0.71 1.39-1.12 2.28-1.12 0.69 0 1.37 0.25 1.89 0.7 0.64 0.57 1 1.36 1 2.19 0 1.59-1.3 2.89-2.89 2.89zm0-4.28c-0.43 0-0.83 0.2-1.1 0.54-0.19 0.24-0.29 0.54-0.29 0.85 0 0.77 0.62 1.39 1.39 1.39s1.39-0.62 1.39-1.39c0-0.4-0.18-0.78-0.49-1.06-0.24-0.21-0.57-0.33-0.9-0.33z"/>
 <path d="m17.01 13.48c-1 0-1.82-0.82-1.82-1.82s0.82-1.82 1.82-1.82 1.82 0.81996 1.82 1.82-0.82 1.82-1.82 1.82zm0-2.14c-0.18 0-0.32 0.14-0.32 0.32s0.14 0.32 0.32 0.32 0.32-0.14 0.32-0.32-0.14-0.32-0.32-0.32z"/>
</svg>

<svg width="24" height="24" viewBox="0 0 24 24"  xmlns="http://www.w3.org/2000/svg">
<path d="M17.0099 13.4798C16.0099 13.4798 15.1899 12.6598 15.1899 11.6598C15.1899 10.6598 16.0099 9.83984 17.0099 9.83984C18.0099 9.83984 18.8299 10.6598 18.8299 11.6598C18.8299 12.6598 18.0099 13.4798 17.0099 13.4798ZM17.0099 11.3398C16.8299 11.3398 16.6899 11.4798 16.6899 11.6598C16.6899 11.8398 16.8299 11.9798 17.0099 11.9798C17.1899 11.9798 17.3299 11.8398 17.3299 11.6598C17.3299 11.4798 17.1899 11.3398 17.0099 11.3398Z" />
<path d="M12.02 16.45H6C2.4 16.45 1.25 15.3 1.25 11.7V6C1.25 2.4 2.4 1.25 6 1.25H16C19.6 1.25 20.75 2.4 20.75 6V7.78998C20.75 7.99998 20.66 8.20998 20.5 8.34998C20.34 8.48998 20.13 8.56003 19.91 8.53003C19.69 8.50003 19.43 8.48999 19.15 8.48999H14.87C13.14 8.48999 12.77 8.86003 12.77 10.59V15.7C12.77 16.11 12.43 16.45 12.02 16.45ZM6 2.75C3.21 2.75 2.75 3.21 2.75 6V11.7C2.75 14.49 3.21 14.95 6 14.95H11.27V10.59C11.27 8.03003 12.31 6.98999 14.87 6.98999H19.15C19.18 6.98999 19.22 6.98999 19.25 6.98999V6C19.25 3.21 18.79 2.75 16 2.75H6Z" />
<path d="M9 20.7502C8.59 20.7502 8.25 20.4102 8.25 20.0002V15.7002C8.25 15.2902 8.59 14.9502 9 14.9502C9.41 14.9502 9.75 15.2902 9.75 15.7002V20.0002C9.75 20.4102 9.41 20.7502 9 20.7502Z" />
<path d="M12 12.6504H2C1.59 12.6504 1.25 12.3104 1.25 11.9004C1.25 11.4904 1.59 11.1504 2 11.1504H12C12.41 11.1504 12.75 11.4904 12.75 11.9004C12.75 12.3104 12.41 12.6504 12 12.6504Z" />
<path d="M12.0002 20.75H5.9502C5.5402 20.75 5.2002 20.41 5.2002 20C5.2002 19.59 5.5402 19.25 5.9502 19.25H12.0002C12.4102 19.25 12.7502 19.59 12.7502 20C12.7502 20.41 12.4102 20.75 12.0002 20.75Z" />
<path d="M17.0099 13.4798C16.0099 13.4798 15.1899 12.6598 15.1899 11.6598C15.1899 10.6598 16.0099 9.83984 17.0099 9.83984C18.0099 9.83984 18.8299 10.6598 18.8299 11.6598C18.8299 12.6598 18.0099 13.4798 17.0099 13.4798ZM17.0099 11.3398C16.8299 11.3398 16.6899 11.4798 16.6899 11.6598C16.6899 11.8398 16.8299 11.9798 17.0099 11.9798C17.1899 11.9798 17.3299 11.8398 17.3299 11.6598C17.3299 11.4798 17.1899 11.3398 17.0099 11.3398Z" />
<path fill-rule="evenodd" clip-rule="evenodd" d="M12.1122 7.83243C12.7799 7.16469 13.7593 6.99023 14.87 6.99023H19.15C19.4915 6.99023 19.8113 7.0122 20.0894 7.04556L20.0955 7.0463L20.0955 7.04633C20.9512 7.15618 21.687 7.4598 22.1683 8.14355C22.6207 8.78621 22.75 9.63429 22.75 10.5903V19.1503C22.75 20.261 22.5756 21.2404 21.9079 21.9081C21.2401 22.5758 20.2608 22.7502 19.15 22.7502H14.87C13.7593 22.7502 12.7799 22.5758 12.1122 21.9081C11.4445 21.2404 11.27 20.261 11.27 19.1503V10.5903C11.27 9.47953 11.4445 8.50016 12.1122 7.83243ZM13.1729 8.89308C12.9506 9.11537 12.77 9.56101 12.77 10.5903V19.1503C12.77 20.1795 12.9506 20.6252 13.1728 20.8474C13.3951 21.0697 13.8408 21.2502 14.87 21.2502H19.15C20.1793 21.2502 20.6249 21.0697 20.8472 20.8474C21.0695 20.6252 21.25 20.1795 21.25 19.1503V10.5903C21.25 9.71625 21.1194 9.25931 20.9417 9.00694C20.7933 8.79601 20.5297 8.61486 19.9076 8.53451C19.6863 8.50808 19.4273 8.49023 19.15 8.49023H14.87C13.8408 8.49023 13.3951 8.67079 13.1729 8.89308ZM17.01 11.3403C16.8342 11.3403 16.69 11.4845 16.69 11.6602C16.69 11.836 16.8343 11.9802 17.01 11.9802C17.1858 11.9802 17.33 11.836 17.33 11.6602C17.33 11.4845 17.1859 11.3403 17.01 11.3403ZM15.19 11.6602C15.19 10.6559 16.0059 9.84027 17.01 9.84027C18.0142 9.84027 18.83 10.656 18.83 11.6602C18.83 12.6644 18.0143 13.4802 17.01 13.4802C16.0058 13.4802 15.19 12.6644 15.19 11.6602ZM17.01 15.6202C16.5655 15.6202 16.1686 15.8321 15.9117 16.1611C15.7301 16.3948 15.62 16.6939 15.62 17.0103C15.62 17.776 16.2443 18.4003 17.01 18.4003C17.7758 18.4003 18.4 17.7761 18.4 17.0103C18.4 16.6032 18.2164 16.2234 17.9156 15.9542C17.6762 15.7487 17.3601 15.6202 17.01 15.6202ZM14.7287 15.239C15.2518 14.5683 16.0747 14.1202 17.01 14.1202C17.7381 14.1202 18.4005 14.3904 18.9006 14.823L18.9084 14.8296L18.9083 14.8297C19.5053 15.3603 19.9 16.139 19.9 17.0103C19.9 18.6045 18.6043 19.9003 17.01 19.9003C15.4158 19.9003 14.12 18.6045 14.12 17.0103C14.12 16.3468 14.3498 15.726 14.728 15.2398L14.7287 15.239Z" />
<path d="M17.0101 19.9001C15.4201 19.9001 14.1201 18.6001 14.1201 17.0101C14.1201 16.3701 14.3401 15.7401 14.7301 15.2401C15.2801 14.5301 16.1201 14.1201 17.0101 14.1201C17.7001 14.1201 18.3801 14.3701 18.9001 14.8201C19.5401 15.3901 19.9001 16.1801 19.9001 17.0101C19.9001 18.6001 18.6001 19.9001 17.0101 19.9001ZM17.0101 15.6201C16.5801 15.6201 16.1801 15.8201 15.9101 16.1601C15.7201 16.4001 15.6201 16.7001 15.6201 17.0101C15.6201 17.7801 16.2401 18.4001 17.0101 18.4001C17.7801 18.4001 18.4001 17.7801 18.4001 17.0101C18.4001 16.6101 18.2201 16.2301 17.9101 15.9501C17.6701 15.7401 17.3401 15.6201 17.0101 15.6201Z" />
<path d="M17.0099 13.4798C16.0099 13.4798 15.1899 12.6598 15.1899 11.6598C15.1899 10.6598 16.0099 9.83984 17.0099 9.83984C18.0099 9.83984 18.8299 10.6598 18.8299 11.6598C18.8299 12.6598 18.0099 13.4798 17.0099 13.4798ZM17.0099 11.3398C16.8299 11.3398 16.6899 11.4798 16.6899 11.6598C16.6899 11.8398 16.8299 11.9798 17.0099 11.9798C17.1899 11.9798 17.3299 11.8398 17.3299 11.6598C17.3299 11.4798 17.1899 11.3398 17.0099 11.3398Z" />
</svg>
